public/images/calendar-icon.svg

<svg fill="none" viewBox="0 0 29 29" xmlns="http://www.w3.org/2000/svg"><path d="m8.28121 3.5636v2.67273m12.47279-2.67273v2.67273m-16.92734 16.03637v-13.36364c0-.70885.28159-1.38867.78283-1.8899.50123-.50124 1.18105-.78283 1.8899-.78283h16.03641c.7088 0 1.3887.28159 1.8899.78283.5012.50123.7828 1.18105.7828 1.8899v13.36364m-21.38184 0c0 .7089.28159 1.3887.78283 1.8899.50123.5013 1.18105.7829 1.8899.7829h16.03641c.7088 0 1.3887-.2816 1.8899-.7829.5012-.5012.7828-1.181.7828-1.8899m-21.38184 0v-8.9091c0-.7088.28159-1.3887.78283-1.8899.50123-.5012 1.18105-.7828 1.8899-.7828h16.03641c.7088 0 1.3887.2816 1.8899.7828s.7828 1.1811.7828 1.8899v8.9091" stroke="#ffe8cb" stroke-linecap="round" stroke-linejoin="round" stroke-width="1.78182"/></svg>

<svg width="29" height="29" viewBox="0 0 29 29" fill="none" xmlns="http://www.w3.org/2000/svg">
<path d="M8.28121 3.5636V6.23633M20.754 3.5636V6.23633M3.82666 22.2727V8.90906C3.82666 8.20021 4.10825 7.52039 4.60949 7.01916C5.11072 6.51792 5.79054 6.23633 6.49939 6.23633H22.5358C23.2446 6.23633 23.9245 6.51792 24.4257 7.01916C24.9269 7.52039 25.2085 8.20021 25.2085 8.90906V22.2727M3.82666 22.2727C3.82666 22.9816 4.10825 23.6614 4.60949 24.1626C5.11072 24.6639 5.79054 24.9455 6.49939 24.9455H22.5358C23.2446 24.9455 23.9245 24.6639 24.4257 24.1626C24.9269 23.6614 25.2085 22.9816 25.2085 22.2727M3.82666 22.2727V13.3636C3.82666 12.6548 4.10825 11.9749 4.60949 11.4737C5.11072 10.9725 5.79054 10.6909 6.49939 10.6909H22.5358C23.2446 10.6909 23.9245 10.9725 24.4257 11.4737C24.9269 11.9749 25.2085 12.6548 25.2085 13.3636V22.2727" stroke="#FFE8CB" stroke-width="1.78182" stroke-linecap="round" stroke-linejoin="round"/>
</svg>
